X:2510
T:The Three Bonnie Maidens/The Graces
P:Lady Hope of Pinkie
C:Nathaniel Gow
R:Strathspey (8x32)
B:RSCDS 25-10
Z:Anselm Lingnau <anselm@strathspey.org>
M:C
L:1/8
K:Bb
d|"Bb"B<B "Gm"b2 "Bb"a<f "F7"g2|"Bb"f>d "F7"e>c "Bb"d<B "F7"A>F|\
  "Bb"B<B "Gm"b2 "Dm"a<f f>g|"F7"f>d e<c "Bb"B2 B, d|
  "Bb"B<B "Gm"b2 "Bb"a<f "F7"g2|"Bb"f>d "F7"e>c "Bb"d<B "F7"A>F|\
  "Bb"B<B "Gm"b2 "Dm"a<f f>g|"F7"f>d e<c "Bb"B2 B,||
F|"Bb"D/E/F B>D "Eb"E>G B2|"F7"A/B/c c>c "Bb"d>e f2|\
  "Bb"D/E/F B>D "Eb"E>G "C7"c>B|"F"A/B/c F>A "Bb"B2 B,>F|
  "Bb"D/E/F B>D "Eb"E>G B2|"F7"A/B/c e/d/c "Bb"d>e f2|\
  "Bb"(3dBd (3fdf "Cm"ecg geg|"F7"(3fcf (3afa "Bb"b2 B|]

